!!!!SEGMENT: pl-cz--ii-123--003_kottritsch-franciszek--mittit-ad-virginem-mittit-ad-virginem.krn
!!!cenid: 17xx:929
!!!COM: Kottritsch, Franciszek
!!!COM-rismID: pe30040598
!!!CDT: ~1727-1787
!!!CNT:
!!!OPR: Mittit ad virginem
!!!OTL: Mittit ad virginem
!!!OMV: 001
!!!PDT:
!!!AGN: Sacred
!!!SMS-siglum: PL-CZ
!!!SMS-shelfmark: II-123
!!!SMS-shelfwork: 002-001 M
!!!SMS-variant:
!!!SMS-altvar:
!!!NIFC-rismSourceID: 300000619
!!!NIFC-rismChildID: 300000621
!!!NIFC-islandoraID: pl-cz:32159
!!!URL-pdf-islandora: https://repozytorium.nifc.pl/islandora/object/pl-cz%3A32159/datastream/PDF/view
!!!URL-scan: https://polish.musicsources.pl/pl/lokalizacje/galeria/rekopisy/6754/1 @EN{Scan on Polish Music Sources Website} @PL{Skany w portalu Dziedzictwo Muzyki Polskiej w otwartym dostępie}
!!!ONB-nifc: UWAGA: części Mittit ad virginem: Mittit ad virginem, Zdrowaś bądź Maria, Super bientium, Qui nobis tribuat. Uwaga: numeracja części od 003. Rorate caeli to osobny utwór
!!!AIN: 1 alto 1 bass 2 oboe 1 organ 1 soprn 1 tenor 2 violn
!!!key: F
**kern	**fba	**kern	**kern	**kern	**text	**kern	**text	**kern	**text	**kern	**text	**kern	**kern
*part9	*	*part8	*part7	*part6	*part6	*part5	*part5	*part4	*part4	*part3	*part3	*part2	*part1
*group4	*	*group3	*group3	*group2	*group2	*group2	*group2	*group2	*group2	*group2	*group2	*group1	*group1
*staff9	*	*staff8	*staff7	*staff6	*staff6	*staff5	*staff5	*staff4	*staff4	*staff3	*staff3	*staff2	*staff1
*I"Organo.	*	*I"Violino Secundo	*I"Violino Primo.	*I"Baſso.	*	*I"Tenore	*	*I"Alto.	*	*I"Canto.	*	*I"Hoboa Secundo.	*I"Hoboa Primo.
*I'org	*	*I'vl 2	*I'vl 1	*I'B	*	*I'T	*	*I'A	*	*I'S	*	*I'ob 2	*I'ob 1
*Iorgan	*	*Ivioln	*Ivioln	*Ibass	*	*Itenor	*	*Ialto	*	*Isoprn	*	*Ioboe	*Ioboe
*ICklav	*	*ICstr	*ICstr	*ICvox	*	*ICvox	*	*ICvox	*	*ICvox	*	*ICww	*ICww
*clefF4	*	*clefG2	*clefG2	*clefF4	*	*clefC4	*	*clefC3	*	*clefC1	*	*clefG2	*clefG2
*k[b-]	*	*k[b-]	*k[b-]	*k[b-]	*	*k[b-]	*	*k[b-]	*	*k[b-]	*	*k[b-]	*k[b-]
*F:	*	*F:	*F:	*F:	*	*F:	*	*F:	*	*F:	*	*F:	*F:
*M3/4	*	*M3/4	*M3/4	*M3/4	*	*M3/4	*	*M3/4	*	*M3/4	*	*M3/4	*M3/4
=1	=1	=1	=1	=1	=1	=1	=1	=1	=1	=1	=1	=1	=1
*2\right	*	*2\right	*2\right	*2\right	*	*2\right	*	*2\right	*	*2\right	*	*	*
!	!	!	!	!	!	!	!	!	!	!	!	!LO:TX:t=[Tacet]	!LO:TX:t=[Tacet]
4F\	.	4cc\	4aa\	4F\	Mit-	4A/	Mit-	4f\	Mit-	4cc\	Mit-	2.ryy	2.ryy
4B-X\	.	4dd\	4ff\	4B-\	-tit	4d\	-tit	4f\	-tit	4dd\	-tit	.	.
4G\	x 6	4ee\	4bb-\	4G\	ad	4B-\	ad	4e\	ad	4ee\	ad	.	.
=2	=2	=2	=2	=2	=2	=2	=2	=2	=2	=2	=2	=2	=2
4.F\	.	4.ff\	4.aa\	4.F\	Vir-	4.A/	Vir-	4.f\	Vir-	4.cc\	Vir-	2.ryy	2.ryy
8F\	.	8ff\	8aa\	8F\	-gi-	8A/	-gi-	8f\	-gi-	8cc\	-gi-	.	.
4F\	.	4ff\	4aa\	4F\	-nem	4A/	-nem	4f\	-nem	4cc\	-nem	.	.
=3	=3	=3	=3	=3	=3	=3	=3	=3	=3	=3	=3	=3	=3
4F\	.	4cc\	4aa\	4F\	n(on)	4c\	n(on)	4a\	n(on)	4cc\	non	2.ryy	2.ryy
4E\	x 6	4cc\	4gg\	4E\	qvem-	4c\	qvem-	4g\	qvem-	4g\	qve(m)-	.	.
4D\	x 6\	4dd\	4ff\	4D\	-vis	4Bn\	-vis	4f\	-vis	4dd\	-vis	.	.
=4	=4	=4	=4	=4	=4	=4	=4	=4	=4	=4	=4	=4	=4
4.C/	.	4.ee\	4.gg\	4.C/	An-	4.c\	An-	4.e\	An-	4.g/	An-	2.ryy	2.ryy
8C/	.	8ee\	8gg\	8C/	-ge-	8c\	-ge-	8e\	-ge-	8g/	-ge-	.	.
4C/	.	4ee\	4gg\	4C/	-lum	4c\	-lu(m)	4e\	-lum	4g/	-lum	.	.
=5	=5	=5	=5	=5	=5	=5	=5	=5	=5	=5	=5	=5	=5
4C/	.	4cc\	4ee\	4C/	sed	4c\	sed	4e\	sed	4ee\	sed	2.ryy	2.ryy
4D/	x 6-r	4b-X\	4ff\	4D/	for-	4B-X\	for-	4f\	for-	4dd\	for-	.	.
4En\	x 5-r	4b-\	4gg\	4E\	-ti-	4B-\	-ti-	4g\	-ti-	4cc\	-ti-	.	.
=6	=6	=6	=6	=6	=6	=6	=6	=6	=6	=6	=6	=6	=6
4.F\	.	4.a/	4.ff\	4.F\	-tu-	4.A/	-tu-	4.c/	-tu-	4.ff\	-tu-	2.ryy	2.ryy
8F\	.	8a/	8ff\	8F\	-di-	8A/	-di-	8c/	-di-	8ff\	-di-	.	.
4F\	.	4a/	4cc\	4F\	-nem	4A/	-nem	4c/	-nem	4ff\	-nem	.	.
=7	=7	=7	=7	=7	=7	=7	=7	=7	=7	=7	=7	=7	=7
4A\	x 6	4cc\	4ff\	4A\	su-	4c\	su-	4f\	su-	4ff\	su-	2.ryy	2.ryy
4G\	x 6	4b-X\	4gg\	4G\	-um	4e\	-u(m)	4g\	-um	4ee\	-um	.	.
4F\	.	8cc\L	4aa\	4F\	Ar-	4f\	Ar-	4a\	Ar-	4cc\	Ar-	.	.
.	.	8dd\J	.	.	.	.	.	.	.	.	.	.	.
!	!	!	!	!	!	!	!	!LO:LB:g=original	!	!LO:LB:g=original	!	!	!
=8	=8	=8	=8	=8	=8	=8	=8	=8	=8	=8	=8	=8	=8
4.c\	.	8ee\L	8gg\L	4.c\	-chan-	4.e\	-chan-	4.g\	-chan-	4.cc\	-chan-	2.ryy	2.ryy
.	.	8ff\	8aa\	.	.	.	.	.	.	.	.	.	.
.	.	8cc\	8ee\	.	.	.	.	.	.	.	.	.	.
8c\	.	8dd\	8ff\	8c\	-ge-	8e\	-ge-	8g\	-ge-	8cc\	-ge-	.	.
4c\	.	8ee\	8gg\	4c\	-lum	4e\	-lu(m)	4g\	-lum	4cc\	-lum	.	.
.	.	8ff\J	8aa\J	.	.	.	.	.	.	.	.	.	.
!LO:LB:g=original	!	!	!	!LO:LB:g=original	!	!LO:LB:g=original	!	!	!	!	!	!	!
=9	=9	=9	=9	=9	=9	=9	=9	=9	=9	=9	=9	=9	=9
8c\L	.	8ee\L	4gg\	8c\L	a-	8e\L	a-	4.g\	a-	2.cc\	a-	2.ryy	2.ryy
8d\	.	8ff\	.	8d\	.	8f\	.	.	.	.	.	.	.
8c\	.	8ee\	4g/	8c\	.	8e\	.	.	.	.	.	.	.
8B-X\	.	8dd\	.	8B-\	.	8d\	.	8g\L	.	.	.	.	.
8A\	.	8cc\	4ee\	8A\	.	8c\	.	8a\	.	.	.	.	.
8G\J	.	8cc\J	.	8G\J	.	8B-X\J	.	8b-X\J	.	.	.	.	.
!	!	!LO:LB:g=original	!	!	!	!	!	!	!	!	!	!	!
=10	=10	=10	=10	=10	=10	=10	=10	=10	=10	=10	=10	=10	=10
8F\L	.	4cc\	8aa\L	8F\L	.	2c\	-ma-	8a\L	-ma-	(4a\	-ma-	2.ryy	2.ryy
8G\	.	.	8bb-\	8G\	.	.	.	8b-X\	.	.	.	.	.
8F\	.	4cc\	8aa\	8F\	.	.	.	8a\	.	2cc\)	.	.	.
8E\	.	.	8gg\	8E\	.	.	.	8g\	.	.	.	.	.
8D\	.	4a\	8ff\	8D\	.	4A\	-tor	8f\	.	.	.	.	.
8C\J	.	.	8ee\J	8C\J	.	.	.	8e\J	.	.	.	.	.
!	!	!	!LO:LB:g=original	!	!	!	!	!	!	!	!	!	!
=11	=11	=11	=11	=11	=11	=11	=11	=11	=11	=11	=11	=11	=11
*	*	*	*	*	*	*	*ij	*	*	*	*	*	*
!	!	!	!	!	!	!	!	!	!	!LO:TX:t=P:problem=oddech/cezura na środku pięciolinii	!	!	!
[4BB-/	.	4b-/	4dd\	(4BB-/	-ma-	4F/	a-	(4d\	.	4dd,\	-tor	2.ryy	2.ryy
4BB-/]	6 4	4g/	4ee\	4B-\)	.	4G/	-ma-	4e\)	.	2cc\	ho-	.	.
!LO:TX:t=P:problem=mixed beam	!	!	!	!	!	!	!	!	!	!	!	!	!
8AA/L	x 6	4a/	4ff\	4A\	-tor	4A/	-tor	4f\	-tor	.	.	.	.
*	*	*	*	*	*	*	*Xij	*	*	*	*	*	*
8A\J	.	.	.	.	.	.	.	.	.	.	.	.	.
=12	=12	=12	=12	=12	=12	=12	=12	=12	=12	=12	=12	=12	=12
4B-\	6 5	8dd\L	4gg\	4B-\	ho-	(4d\	ho-	(8g\L	ho-	(8b-X\L	.	2.ryy	2.ryy
.	.	8bb-\J	.	.	.	.	.	8f\J)	.	8a\J)	.	.	.
4c\	.	4.ee\	4.gg\	4c\	.	4.c\)	.	4.et\	.	4.g\	.	.	.
4C/	x 43	.	.	4C/	-mi-	.	.	.	.	.	.	.	.
.	.	8ee\	8ff\	.	.	8B-X\	-mi-	8e\	-mi-	8g\	-mi-	.	.
=13	=13	=13	=13	=13	=13	=13	=13	=13	=13	=13	=13	=13	=13
2.FF/	.	2.ff\	2.ff\	2.F\	-nis.	2.A/	-nis.	2.f\	-nis.	2.a\	-nis.	2.ryy	2.ryy
!	!	!	!	!LO:TX:b:t=Zdrowas Volti Cito	!	!LO:TX:b:t=Zdrowas bądz Maria &c.	!	!LO:TX:b:t=Zdrowas\nVolti cito	!	!LO:TX:b:t=Zdrowas bądz maria	!	!	!
==	==	==	==	==;;	==	==	==	==	==	==	==	==	==
*-	*-	*-	*-	*-	*-	*-	*-	*-	*-	*-	*-	*-	*-
!!!system-decoration: [g1][g2][g3]g4
!!!RDF**kern: > = above
!!!RDF**kern: < = below
!!!ENC: Katarzyna Serwa
!!!END: 2022-02-05
!!!ENC: Kamil Watkowski
!!!END: 2020-08-12
!!!YEC: Copyright 2022 Narodowy Instytut Fryderyka Chopina (https://polishscores.org)
!!!YEM: License CC-BY-4.0 (https://creativecommons.org/licenses/by/4.0)
